assets/symbols/mulberry/door_2.svg

<svg height="850.394" viewBox="0 0 850.394 850.394" width="850.394" xmlns="http://www.w3.org/2000/svg"><path d="m579.26 111.3v650.13h-308.1v-650.13zm-254.45 307.09c0-9.06-7.34-16.4-16.4-16.4s-16.41 7.34-16.41 16.4 7.35 16.4 16.41 16.4 16.4-7.34 16.4-16.4z" fill="#f6cc4b"/><path d="m579.26 761.43v-650.13h-308.1v656.52h-33.54v-686.68h374.83v686.68h-33.19z" fill="#fff5b4"/><path d="m308.41 401.99c9.06 0 16.4 7.34 16.4 16.4s-7.34 16.4-16.4 16.4-16.41-7.34-16.41-16.4 7.35-16.4 16.41-16.4z" fill="#fbed24"/><g fill="none"><g stroke="#231f20"><path d="m99.22 767.82h171.94v-656.52h308.1v656.52h174.03" stroke-width="14"/><path d="m269.38 761.43h310.18" stroke-width="28"/><path d="m324.81 418.39c0 9.06-7.34 16.4-16.4 16.4s-16.41-7.34-16.41-16.4 7.35-16.4 16.41-16.4 16.4 7.34 16.4 16.4z" stroke-width="14"/><path d="m612.45 730.44h139.25m-514.08 40.56v-689.86h374.83v681.06m-511.65-32.55h136.82" stroke-width="28"/></g><path d="m0 0h850.394v850.394h-850.394z"/></g></svg>

<svg xmlns="http://www.w3.org/2000/svg" width="850.394" height="850.394" viewBox="0 0 850.394 850.394" overflow="visible"><path d="M579.26 111.3v650.13h-308.1V111.3h308.1zM324.81 418.39c0-9.06-7.34-16.4-16.4-16.4S292 409.33 292 418.39s7.35 16.4 16.41 16.4 16.4-7.34 16.4-16.4z" fill="#f6cc4b"/><path fill="#fff5b4" d="M579.26 761.43V111.3h-308.1v656.52h-33.54V81.14h374.83v686.68h-33.19z"/><path d="M308.41 401.99c9.06 0 16.4 7.34 16.4 16.4s-7.34 16.4-16.4 16.4-16.41-7.34-16.41-16.4 7.35-16.4 16.41-16.4z" fill="#fbed24"/><g fill="none" stroke="#231f20"><path stroke-width="14" d="M99.22 767.82h171.94V111.3h308.1v656.52h174.03"/><path stroke-width="28" d="M269.38 761.43h310.18"/><path d="M324.81 418.39c0 9.06-7.34 16.4-16.4 16.4S292 427.45 292 418.39s7.35-16.4 16.41-16.4 16.4 7.34 16.4 16.4z" stroke-width="14"/><path stroke-width="28" d="M612.45 730.44H751.7M237.62 771V81.14h374.83V762.2M100.8 729.65h136.82"/></g><path fill="none" d="M0 0h850.394v850.394H0z"/></svg>
